Sweet-Rainbow/icons/libreoffice-draw.svg

<?xml version="1.0" encoding="UTF-8" standalone="no"?>
<!-- Generator: Gravit.io -->

<svg
   xmlns:dc="http://purl.org/dc/elements/1.1/"
   xmlns:cc="http://creativecommons.org/ns#"
   xmlns:rdf="http://www.w3.org/1999/02/22-rdf-syntax-ns#"
   xmlns:svg="http://www.w3.org/2000/svg"
   xmlns="http://www.w3.org/2000/svg"
   xmlns:sodipodi="http://sodipodi.sourceforge.net/DTD/sodipodi-0.dtd"
   xmlns:inkscape="http://www.inkscape.org/namespaces/inkscape"
   style="isolation:isolate"
   viewBox="0 0 36 36"
   width="48"
   height="48"
   version="1.1"
   id="svg21"
   sodipodi:docname="libreoffice-draw.svg"
   inkscape:version="0.92.4 (5da689c313, 2019-01-14)">
  <metadata
     id="metadata27">
    <rdf:RDF>
      <cc:Work
         rdf:about="">
        <dc:format>image/svg+xml</dc:format>
        <dc:type
           rdf:resource="http://purl.org/dc/dcmitype/StillImage" />
        <dc:title></dc:title>
      </cc:Work>
    </rdf:RDF>
  </metadata>
  <defs
     id="defs25" />
  <sodipodi:namedview
     pagecolor="#ffffff"
     bordercolor="#666666"
     borderopacity="1"
     objecttolerance="10"
     gridtolerance="10"
     guidetolerance="10"
     inkscape:pageopacity="0"
     inkscape:pageshadow="2"
     inkscape:window-width="640"
     inkscape:window-height="480"
     id="namedview23"
     showgrid="false"
     inkscape:zoom="29.365243"
     inkscape:cx="25.325443"
     inkscape:cy="32"
     inkscape:current-layer="svg21"
     units="px" />
  <linearGradient
     id="_lgradient_6"
     x1="0"
     y1="0.5"
     x2="1"
     y2="0.5"
     gradientTransform="matrix(20,0,0,20,25.124,26)"
     gradientUnits="userSpaceOnUse">
    <stop
       offset="0%"
       stop-opacity="1"
       style="stop-color:rgb(247,242,6)"
       id="stop2" />
    <stop
       offset="97.82608695652173%"
       stop-opacity="1"
       style="stop-color:rgb(255,187,36)"
       id="stop4" />
  </linearGradient>
  <linearGradient
     id="_lgradient_7"
     x1="24.624672"
     y1="35.999638"
     x2="45.624458"
     y2="35.999638"
     gradientTransform="scale(0.99998993,1.0000101)"
     gradientUnits="userSpaceOnUse">
    <stop
       offset="0%"
       stop-opacity="1"
       style="stop-color:rgb(247,242,6)"
       id="stop7" />
    <stop
       offset="97.82608695652173%"
       stop-opacity="1"
       style="stop-color:rgb(255,187,36)"
       id="stop9" />
  </linearGradient>
  <linearGradient
     id="_lgradient_8"
     x1="0"
     y1="0.5"
     x2="1"
     y2="0.5"
     gradientTransform="matrix(40,0,0,44,2,2)"
     gradientUnits="userSpaceOnUse">
    <stop
       offset="0%"
       stop-opacity="1"
       style="stop-color:rgb(247,242,6)"
       id="stop14" />
    <stop
       offset="97.82608695652173%"
       stop-opacity="1"
       style="stop-color:rgb(255,187,36)"
       id="stop16" />
  </linearGradient>
  <g
     id="g839"
     transform="matrix(0.80898876,0,0,0.80898876,-1.2636404,-1.6179774)">
    <path
       id="path12"
       stroke-miterlimit="3"
       d="m 26.943,35.391 v 0 c -0.038,0.499 -0.475,0.875 -0.977,0.839 v 0 c -0.501,-0.037 -0.877,-0.474 -0.839,-0.975 v 0 c 0.186,-2.514 1.32,-4.869 3.172,-6.587 C 30.151,26.955 32.586,26 35.112,26 c 2.653,0 5.202,1.055 7.081,2.927 1.875,1.878 2.931,4.423 2.931,7.073 0,2.65 -1.056,5.195 -2.931,7.073 C 40.314,44.945 37.765,46 35.112,46 v 0 c -0.503,0 -0.91,-0.407 -0.91,-0.909 v 0 c 0,-0.502 0.407,-0.909 0.91,-0.909 v 0 c 2.171,0 4.255,-0.864 5.793,-2.396 1.534,-1.536 2.399,-3.618 2.399,-5.786 0,-2.168 -0.865,-4.25 -2.399,-5.786 -1.538,-1.532 -3.622,-2.396 -5.793,-2.396 -2.066,0 -4.06,0.777 -5.575,2.182 -1.516,1.405 -2.44,3.332 -2.594,5.391 z m 4.36,7.854 v 0 c 0.444,0.234 0.615,0.784 0.382,1.228 v 0 c -0.234,0.444 -0.784,0.615 -1.229,0.382 v 0 c -1.893,-0.996 -3.422,-2.573 -4.355,-4.496 v 0 c -0.221,-0.451 -0.034,-0.996 0.418,-1.216 v 0 c 0.453,-0.219 0.999,-0.031 1.22,0.421 v 0 c 0.765,1.577 2.012,2.863 3.564,3.681 z m 2.236,-10.569 c 0.476,0.097 0.95,0.227 1.407,0.389 0.446,0.158 0.862,0.385 1.231,0.673 0.196,0.15 0.373,0.323 0.531,0.515 0.142,0.177 0.261,0.366 0.358,0.57 0.103,0.215 0.18,0.442 0.227,0.677 0.061,0.292 0.092,0.588 0.092,0.884 0,0.273 -0.031,0.546 -0.092,0.812 -0.047,0.204 -0.12,0.4 -0.22,0.581 -0.092,0.173 -0.207,0.33 -0.342,0.473 -0.158,0.161 -0.335,0.307 -0.527,0.427 -0.181,0.111 -0.377,0.211 -0.577,0.288 -0.269,0.108 -0.546,0.192 -0.831,0.262 -0.288,0.065 -0.584,0.115 -0.877,0.15 -0.127,0.015 -0.254,0.03 -0.38,0.038 z m -0.674,-1.669 c 0.881,0.108 1.75,0.312 2.593,0.608 0.6,0.211 1.161,0.515 1.665,0.908 0.285,0.223 0.546,0.477 0.777,0.757 0.219,0.273 0.408,0.57 0.554,0.881 0.158,0.327 0.273,0.673 0.346,1.027 0.081,0.392 0.123,0.792 0.123,1.196 0,0.389 -0.042,0.777 -0.13,1.154 -0.077,0.339 -0.2,0.666 -0.362,0.969 -0.162,0.297 -0.358,0.566 -0.592,0.808 -0.243,0.254 -0.52,0.477 -0.82,0.666 -0.261,0.165 -0.538,0.303 -0.827,0.415 -0.342,0.135 -0.692,0.246 -1.046,0.327 -0.346,0.081 -0.696,0.142 -1.05,0.185 -0.434,0.05 -0.869,0.08 -1.308,0.092 -0.207,0.004 -0.407,-0.073 -0.557,-0.219 C 32.085,40.638 32,40.438 32,40.231 v -8.462 c 0,-0.219 0.096,-0.431 0.262,-0.577 0.165,-0.146 0.384,-0.216 0.603,-0.185 z"
       style="vector-effect:non-scaling-stroke;fill:url(#_lgradient_6);fill-rule:evenodd;stroke:url(#_lgradient_7);stroke-width:1;stroke-linecap:square;stroke-linejoin:miter;stroke-miterlimit:3"
       inkscape:connector-curvature="0" />
    <path
       id="path19"
       d="M 31,6 V 6 C 29.896,6 29,5.104 29,4 v 0 c 0,-1.104 0.896,-2 2,-2 v 0 h 6 c 2.76,0 5,2.24 5,5 v 6 0 c 0,1.104 -0.896,2 -2,2 v 0 c -1.104,0 -2,-0.896 -2,-2 V 13 9 C 38,7.344 36.656,6 35,6 Z m -9,36 v 0 c 1.104,0 2,0.896 2,2 v 0 c 0,1.104 -0.896,2 -2,2 v 0 H 7 C 4.24,46 2,43.76 2,41 V 7 C 2,4.24 4.24,2 7,2 h 13.77 c 1.656,0 3.925,0.975 5.065,2.176 L 41.34,20.51 v 0 c 0.817,0.74 0.882,2.005 0.145,2.825 v 0 c -0.737,0.82 -2.003,0.889 -2.825,0.155 v 0 L 22.915,6.729 C 22.537,6.327 21.782,6 21.23,6 H 9 C 7.344,6 6,7.344 6,9 v 30 c 0,1.656 1.344,3 3,3 z M 20.23,11.337 v 0 c 0.089,-0.822 0.829,-1.417 1.651,-1.328 v 0 c 0.822,0.089 1.419,0.833 1.331,1.66 v 0 c -0.014,0.134 -0.006,0.269 0.033,0.404 0.077,0.323 0.164,0.643 0.269,0.956 0.116,0.341 0.21,0.68 0.307,1.028 0.106,0.398 0.16,0.804 0.178,1.224 0.014,0.528 -0.101,1.051 -0.354,1.518 -0.286,0.523 -0.74,0.937 -1.282,1.202 -0.237,0.109 -0.483,0.222 -0.73,0.303 -0.469,0.174 -0.948,0.32 -1.427,0.466 -0.483,0.136 -0.953,0.279 -1.421,0.453 -0.351,0.119 -0.687,0.276 -1,0.467 -0.193,0.114 -0.352,0.259 -0.479,0.434 -0.085,0.117 -0.131,0.251 -0.142,0.394 -0.016,0.358 0.053,0.716 0.197,1.047 0.111,0.3 0.241,0.593 0.4,0.876 0.641,0.636 1.241,1.331 1.769,2.063 0.481,0.664 0.879,1.391 1.177,2.165 0.26,0.672 0.398,1.389 0.413,2.119 0.007,0.68 -0.134,1.362 -0.413,1.988 -0.565,1.181 -1.585,2.082 -2.823,2.51 -0.763,0.273 -1.565,0.41 -2.379,0.403 C 14.619,33.687 13.738,33.556 12.898,33.303 11.952,33.025 11.036,32.628 10.193,32.109 9.234,31.538 8.35,30.852 7.561,30.078 v 0 C 6.974,29.496 6.967,28.543 7.545,27.951 v 0 c 0.578,-0.591 1.528,-0.6 2.121,-0.019 v 0 c 0.625,0.621 1.327,1.16 2.07,1.61 0.633,0.383 1.307,0.677 2.014,0.884 0.575,0.171 1.173,0.258 1.771,0.26 0.471,0.006 0.934,-0.07 1.375,-0.233 0.475,-0.156 0.863,-0.491 1.091,-0.939 0.091,-0.215 0.134,-0.444 0.132,-0.678 -0.009,-0.37 -0.082,-0.738 -0.211,-1.085 -0.207,-0.531 -0.477,-1.028 -0.809,-1.491 -0.508,-0.708 -1.09,-1.356 -1.724,-1.942 -0.321,-0.52 -0.593,-1.081 -0.809,-1.662 -0.3,-0.721 -0.427,-1.495 -0.4,-2.283 0.042,-0.72 0.284,-1.418 0.698,-1.998 0.375,-0.513 0.845,-0.943 1.388,-1.262 0.48,-0.286 0.988,-0.527 1.526,-0.716 0.528,-0.186 1.06,-0.362 1.609,-0.523 0.417,-0.112 0.827,-0.243 1.23,-0.393 0.131,-0.049 0.253,-0.094 0.381,-0.152 -0.009,-0.167 -0.031,-0.341 -0.081,-0.503 -0.072,-0.283 -0.155,-0.562 -0.25,-0.846 -0.13,-0.379 -0.244,-0.774 -0.337,-1.166 -0.127,-0.486 -0.163,-0.985 -0.1,-1.477 z"
       style="fill:url(#_lgradient_8);fill-rule:evenodd"
       inkscape:connector-curvature="0" />
  </g>
</svg>

<?xml version="1.0" encoding="UTF-8" standalone="no"?><!-- Generator: Gravit.io --><svg xmlns="http://www.w3.org/2000/svg" xmlns:xlink="http://www.w3.org/1999/xlink" style="isolation:isolate" viewBox="0 0 48 48" width="48pt" height="48pt"><linearGradient id="_lgradient_6" x1="0" y1="0.5" x2="1" y2="0.5" gradientTransform="matrix(20,0,0,20,25.124,26)" gradientUnits="userSpaceOnUse"><stop offset="0%" stop-opacity="1" style="stop-color:rgb(247,242,6)"/><stop offset="97.82608695652173%" stop-opacity="1" style="stop-color:rgb(255,187,36)"/></linearGradient><linearGradient id="_lgradient_7" x1="0" y1="0.5" x2="1" y2="0.5"><stop offset="0%" stop-opacity="1" style="stop-color:rgb(247,242,6)"/><stop offset="97.82608695652173%" stop-opacity="1" style="stop-color:rgb(255,187,36)"/></linearGradient><path d=" M 26.943 35.391 L 26.943 35.391 C 26.905 35.89 26.468 36.266 25.966 36.23 L 25.966 36.23 C 25.465 36.193 25.089 35.756 25.127 35.255 L 25.127 35.255 C 25.313 32.741 26.447 30.386 28.299 28.668 C 30.151 26.955 32.586 26 35.112 26 C 37.765 26 40.314 27.055 42.193 28.927 C 44.068 30.805 45.124 33.35 45.124 36 C 45.124 38.65 44.068 41.195 42.193 43.073 C 40.314 44.945 37.765 46 35.112 46 L 35.112 46 C 34.609 46 34.202 45.593 34.202 45.091 L 34.202 45.091 C 34.202 44.589 34.609 44.182 35.112 44.182 L 35.112 44.182 C 37.283 44.182 39.367 43.318 40.905 41.786 C 42.439 40.25 43.304 38.168 43.304 36 C 43.304 33.832 42.439 31.75 40.905 30.214 C 39.367 28.682 37.283 27.818 35.112 27.818 C 33.046 27.818 31.052 28.595 29.537 30 C 28.021 31.405 27.097 33.332 26.943 35.391 L 26.943 35.391 Z  M 31.303 43.245 L 31.303 43.245 C 31.747 43.479 31.918 44.029 31.685 44.473 L 31.685 44.473 C 31.451 44.917 30.901 45.088 30.456 44.855 L 30.456 44.855 C 28.563 43.859 27.034 42.282 26.101 40.359 L 26.101 40.359 C 25.88 39.908 26.067 39.363 26.519 39.143 L 26.519 39.143 C 26.972 38.924 27.518 39.112 27.739 39.564 L 27.739 39.564 C 28.504 41.141 29.751 42.427 31.303 43.245 L 31.303 43.245 Z  M 33.539 32.676 C 34.015 32.773 34.489 32.903 34.946 33.065 C 35.392 33.223 35.808 33.45 36.177 33.738 C 36.373 33.888 36.55 34.061 36.708 34.253 C 36.85 34.43 36.969 34.619 37.066 34.823 C 37.169 35.038 37.246 35.265 37.293 35.5 C 37.354 35.792 37.385 36.088 37.385 36.384 C 37.385 36.657 37.354 36.93 37.293 37.196 C 37.246 37.4 37.173 37.596 37.073 37.777 C 36.981 37.95 36.866 38.107 36.731 38.25 C 36.573 38.411 36.396 38.557 36.204 38.677 C 36.023 38.788 35.827 38.888 35.627 38.965 C 35.358 39.073 35.081 39.157 34.796 39.227 C 34.508 39.292 34.212 39.342 33.919 39.377 C 33.792 39.392 33.665 39.407 33.539 39.415 L 33.539 32.676 L 33.539 32.676 Z  M 32.865 31.007 C 33.746 31.115 34.615 31.319 35.458 31.615 C 36.058 31.826 36.619 32.13 37.123 32.523 C 37.408 32.746 37.669 33 37.9 33.28 C 38.119 33.553 38.308 33.85 38.454 34.161 C 38.612 34.488 38.727 34.834 38.8 35.188 C 38.881 35.58 38.923 35.98 38.923 36.384 C 38.923 36.773 38.881 37.161 38.793 37.538 C 38.716 37.877 38.593 38.204 38.431 38.507 C 38.269 38.804 38.073 39.073 37.839 39.315 C 37.596 39.569 37.319 39.792 37.019 39.981 C 36.758 40.146 36.481 40.284 36.192 40.396 C 35.85 40.531 35.5 40.642 35.146 40.723 C 34.8 40.804 34.45 40.865 34.096 40.908 C 33.662 40.958 33.227 40.988 32.788 41 C 32.581 41.004 32.381 40.927 32.231 40.781 C 32.085 40.638 32 40.438 32 40.231 L 32 31.769 C 32 31.55 32.096 31.338 32.262 31.192 C 32.427 31.046 32.646 30.976 32.865 31.007 L 32.865 31.007 Z " fill-rule="evenodd" fill="url(#_lgradient_6)" vector-effect="non-scaling-stroke" stroke-width="1" stroke="url(#_lgradient_7)" stroke-linejoin="miter" stroke-linecap="square" stroke-miterlimit="3"/><linearGradient id="_lgradient_8" x1="0" y1="0.5" x2="1" y2="0.5" gradientTransform="matrix(40,0,0,44,2,2)" gradientUnits="userSpaceOnUse"><stop offset="0%" stop-opacity="1" style="stop-color:rgb(247,242,6)"/><stop offset="97.82608695652173%" stop-opacity="1" style="stop-color:rgb(255,187,36)"/></linearGradient><path d=" M 31 6 L 31 6 C 29.896 6 29 5.104 29 4 L 29 4 C 29 2.896 29.896 2 31 2 L 31 2 L 37 2 C 39.76 2 42 4.24 42 7 L 42 13 L 42 13 C 42 14.104 41.104 15 40 15 L 40 15 C 38.896 15 38 14.104 38 13 L 38 13 L 38 9 C 38 7.344 36.656 6 35 6 L 31 6 L 31 6 Z  M 22 42 L 22 42 C 23.104 42 24 42.896 24 44 L 24 44 C 24 45.104 23.104 46 22 46 L 22 46 L 7 46 C 4.24 46 2 43.76 2 41 L 2 7 C 2 4.24 4.24 2 7 2 L 20.77 2 C 22.426 2 24.695 2.975 25.835 4.176 L 41.34 20.51 L 41.34 20.51 C 42.157 21.25 42.222 22.515 41.485 23.335 L 41.485 23.335 C 40.748 24.155 39.482 24.224 38.66 23.49 L 38.66 23.49 L 22.915 6.729 C 22.537 6.327 21.782 6 21.23 6 L 9 6 C 7.344 6 6 7.344 6 9 L 6 39 C 6 40.656 7.344 42 9 42 L 22 42 L 22 42 Z  M 20.23 11.337 L 20.23 11.337 C 20.319 10.515 21.059 9.92 21.881 10.009 L 21.881 10.009 C 22.703 10.098 23.3 10.842 23.212 11.669 L 23.212 11.669 C 23.198 11.803 23.206 11.938 23.245 12.073 C 23.322 12.396 23.409 12.716 23.514 13.029 C 23.63 13.37 23.724 13.709 23.821 14.057 C 23.927 14.455 23.981 14.861 23.999 15.281 C 24.013 15.809 23.898 16.332 23.645 16.799 C 23.359 17.322 22.905 17.736 22.363 18.001 C 22.126 18.11 21.88 18.223 21.633 18.304 C 21.164 18.478 20.685 18.624 20.206 18.77 C 19.723 18.906 19.253 19.049 18.785 19.223 C 18.434 19.342 18.098 19.499 17.785 19.69 C 17.592 19.804 17.433 19.949 17.306 20.124 C 17.221 20.241 17.175 20.375 17.164 20.518 C 17.148 20.876 17.217 21.234 17.361 21.565 C 17.472 21.865 17.602 22.158 17.761 22.441 C 18.402 23.077 19.002 23.772 19.53 24.504 C 20.011 25.168 20.409 25.895 20.707 26.669 C 20.967 27.341 21.105 28.058 21.12 28.788 C 21.127 29.468 20.986 30.15 20.707 30.776 C 20.142 31.957 19.122 32.858 17.884 33.286 C 17.121 33.559 16.319 33.696 15.505 33.689 C 14.619 33.687 13.738 33.556 12.898 33.303 C 11.952 33.025 11.036 32.628 10.193 32.109 C 9.234 31.538 8.35 30.852 7.561 30.078 L 7.561 30.078 C 6.974 29.496 6.967 28.543 7.545 27.951 L 7.545 27.951 C 8.123 27.36 9.073 27.351 9.666 27.932 L 9.666 27.932 C 10.291 28.553 10.993 29.092 11.736 29.542 C 12.369 29.925 13.043 30.219 13.75 30.426 C 14.325 30.597 14.923 30.684 15.521 30.686 C 15.992 30.692 16.455 30.616 16.896 30.453 C 17.371 30.297 17.759 29.962 17.987 29.514 C 18.078 29.299 18.121 29.07 18.119 28.836 C 18.11 28.466 18.037 28.098 17.908 27.751 C 17.701 27.22 17.431 26.723 17.099 26.26 C 16.591 25.552 16.009 24.904 15.375 24.318 C 15.054 23.798 14.782 23.237 14.566 22.656 C 14.266 21.935 14.139 21.161 14.166 20.373 C 14.208 19.653 14.45 18.955 14.864 18.375 C 15.239 17.862 15.709 17.432 16.252 17.113 C 16.732 16.827 17.24 16.586 17.778 16.397 C 18.306 16.211 18.838 16.035 19.387 15.874 C 19.804 15.762 20.214 15.631 20.617 15.481 C 20.748 15.432 20.87 15.387 20.998 15.329 C 20.989 15.162 20.967 14.988 20.917 14.826 C 20.845 14.543 20.762 14.264 20.667 13.98 C 20.537 13.601 20.423 13.206 20.33 12.814 C 20.203 12.328 20.167 11.829 20.23 11.337 Z " fill-rule="evenodd" fill="url(#_lgradient_8)"/></svg>
